icons/iron-icon.svg

<?xml version="1.0" encoding="UTF-8"?>
<svg width="256px" height="289px" viewBox="0 0 256 289" version="1.1" xmlns="http://www.w3.org/2000/svg" xmlns:xlink="http://www.w3.org/1999/xlink" preserveAspectRatio="xMidYMid">
    <g>
        <path d="M10.4042781,64.7529412 L117.458824,2.87486631 C123.908259,-0.887304417 131.676445,-0.956974245 138.174723,2.66585683 L138.541176,2.87486631 L245.595722,64.7529412 C252.04737,68.5164025 255.859707,75.1831055 255.996205,82.4208593 L256,82.8235294 L256,206.579679 C256,213.837783 252.304965,220.568025 245.951425,224.438214 L245.595722,224.650267 L138.26738,286.254545 C135.255615,287.897326 131.42246,288.992513 127.863102,288.992513 C124.458498,288.992513 121.053894,288.240996 117.888905,286.498345 L117.458824,286.254545 L10.4042781,224.376471 C4.21940413,220.880672 0.147375314,213.951501 0.00391793081,206.701629 L0,206.305882 L0,82.8235294 C0,75.5654254 3.95896584,68.8351835 10.0629713,64.9649944 L10.4042781,64.7529412 L117.458824,2.87486631 L10.4042781,64.7529412 Z M188.098396,89.942246 L67.9016043,89.942246 C66.8064171,89.942246 65.7112299,90.4898396 64.8898396,91.3112299 C64.1232086,92.077861 63.8335924,93.3215068 63.7983842,94.3743468 L63.7946524,94.5967914 L66.5326203,119.786096 C66.7962765,121.368033 68.0754972,122.94997 69.8813068,123.309469 L70.0919786,123.345455 L103.768984,128.547594 L103.768984,161.403209 L70.0919786,166.331551 C68.2463854,166.595207 66.9085745,167.874428 66.5675213,169.680237 L66.5326203,169.890909 L63.7946524,195.080214 C63.7946524,196.175401 64.0684492,197.544385 64.8898396,198.365775 C65.6564706,199.132406 66.661609,199.66053 67.682648,199.727539 L67.9016043,199.734759 L188.098396,199.734759 C189.193583,199.734759 190.28877,199.187166 191.11016,198.365775 C191.876791,197.599144 192.166408,196.355499 192.201616,195.302659 L192.205348,195.080214 L189.46738,169.890909 C189.203724,168.308972 187.924503,166.727035 186.118693,166.367537 L185.908021,166.331551 L152.231016,161.129412 L152.231016,128.273797 L185.908021,123.345455 C187.753615,123.081798 189.091426,121.802578 189.432479,119.996768 L189.46738,119.786096 L192.205348,94.5967914 C192.205348,93.5016043 191.931551,92.1326203 191.11016,91.3112299 C190.343529,90.5445989 189.338391,90.0164753 188.317352,89.9494661 L188.098396,89.942246 Z M183.717647,98.1561497 L181.80107,115.405348 L147.576471,120.607487 C145.461626,120.871842 144.112502,122.412397 143.775535,124.489835 L143.743316,124.714439 L143.743316,164.68877 C143.743316,166.541462 145.022555,168.394153 147.086395,168.762927 L181.527273,173.997861 L183.44385,191.247059 L72.5561497,191.247059 L74.4727273,173.997861 L108.697326,168.795722 C110.550018,168.531052 112.146862,166.987142 112.251259,164.905952 L112.256684,164.68877 L112.256684,124.714439 C112.256684,122.861747 110.977445,121.009055 108.913605,120.640281 L74.4727273,115.405348 L72.5561497,98.1561497 L183.717647,98.1561497 Z" fill="#3177BC" fill-rule="nonzero"></path>
    </g>
</svg>

<svg xmlns="http://www.w3.org/2000/svg" viewBox="0 0 256 288.993">
  <path fill="#3177bc" d="M10.404 64.753 117.46 2.875c6.45-3.762 14.217-3.832 20.716-.21l.366.21 107.055 61.878c6.451 3.763 10.264 10.43 10.4 17.668l.004.403V206.58c0 7.258-3.695 13.988-10.049 17.858l-.355.212-107.329 61.605c-3.011 1.642-6.845 2.738-10.404 2.738-3.404 0-6.81-.752-9.974-2.495l-.43-.243-107.055-61.879C4.22 220.881.147 213.952.004 206.702L0 206.306V82.824c0-7.259 3.959-13.989 10.063-17.859l.341-.212L117.46 2.875zm177.694 25.19H67.902c-1.096 0-2.19.547-3.012 1.368-.767.767-1.056 2.01-1.092 3.063l-.003.223 2.738 25.19c.263 1.581 1.543 3.163 3.348 3.522l.211.036 33.677 5.203v32.855l-33.677 4.929c-1.846.263-3.183 1.542-3.524 3.348l-.035.21-2.738 25.19c0 1.095.273 2.464 1.095 3.286.767.766 1.772 1.295 2.793 1.362l.219.007h120.196c1.096 0 2.19-.548 3.012-1.37.767-.766 1.056-2.01 1.092-3.063l.004-.222-2.738-25.19c-.264-1.581-1.543-3.163-3.349-3.523l-.21-.036-33.678-5.202v-32.855l33.677-4.929c1.846-.263 3.184-1.542 3.525-3.348l.035-.21 2.738-25.19c0-1.095-.274-2.464-1.096-3.286-.766-.766-1.771-1.295-2.792-1.362zm-4.38 8.213-1.917 17.25-34.225 5.201c-2.114.265-3.464 1.805-3.8 3.883l-.033.224v39.975c0 1.852 1.28 3.705 3.343 4.074l34.441 5.235 1.917 17.25H72.556l1.917-17.25 34.224-5.202c1.853-.265 3.45-1.809 3.554-3.89l.005-.217v-39.975c0-1.852-1.279-3.705-3.343-4.074l-34.44-5.235-1.917-17.249z"/>
</svg>
